X: 1
T: Les heures du vent (intro)
C:Anamnèse - Eric Forgeot
O:France
A:Champaigne
Z: Eric Forgeot - http://anamnese.online.fr
H:2007
M: 4/4
L: 1/ 8
Q:1/4=100
% Last note suggests Dorian mode tune
K:F % 1 flats
%%staves {(2) (4) (1 3)}
V:1
%%MIDI program 0
   D,2 C,2 G,A, G,2 | C,2 E,2 D,4 | G,A, G,E, F,3/2F,/2 F,E, | D,2 G,C, F,G, E,2  |
|: D,2 C,2 G,A, G,2 | C,2 E,2 D,4 | G,A, G,E, F,3/2F,/2 F,E, | D,2 G,C, F,G, E,2 :|
   D,2 C,2 G,A, G,2 | C,2 E,2 D,4 | G,A, G,E, F,3/2F,/2 F,E, | D,2 G,C, F,G, E,2 |
   D,2 C,2 G,A, G,2 | C,2 E,2 D,4 | C,2 G,3/2C,/2 C,2 E,2 | D,D, D,G, D,4 |
|: D,2 C,2 G,A, G,2 | C,2 E,2 D,4 | G,A, G,E, F,3/2F,/2 F,E, | D,2 G,C, F,G, E,2 :|
   D,2 C,2 G,A, G,2 | C,2 E,2 D,4 | C,2 G,3/2C,/2 C,2 E,2 | D,D, D,G, D,4 |
   D,2 C,2 G,A, G,2 | C,2 E,2 D,4 | C,2 G,3/2C,/2 C,2 E,2 | D,D, D,G, D,4 |]
V:2
%%MIDI program 0
   DF C2 D4 | G4 A3A/2G/2 | E2 C2 DF F2 | Ac A2 E2 E2 |
|: FG E2 D4 | G4 F3/2E <FE/2 | D2 GA FE F2 | D2 C2 F2 F2 :|
  AF A2 D4 | GF G2 A4 | G3/2F <GF/2 G2 A2 | DD DC D4 |
  af a2 d4 | gf g2 a4 | g3/2f <gf/2 g2 a2 | dd dc d4 |
|: FG E2 D4 | G4 F3/2E <FE/2 | D2 GA FE F2 | D2 C2 F2 F2 :|
  AF A2 D4 | GF G2 A4 | G3/2F <GF/2 G2 A2 | DD DC D4 |
  af a2 d4 | gf g2 a4 | g3/2f <gf/2 g2 a2 | dd dc d4 |]
V:3
%%MIDI program 0
   D,,4 D,,4 | C,,4 F,,2 D,,2 | C,,2 C,,2 D,,4 | D,,3F,,/2G,,/2 A,,2 E,,2 |
|: D,,4 D,,4 | C,,4 F,,2 D,,2 | C,,2 C,,2 D,,4 | D,,3F,,/2G,,/2 A,,2 E,,2 :|
   D,,4 D,,4 | C,,4 F,,2 D,,2 | C,,3/2F,, <G,,C,,/2 G,,2 A,,G,,/2F,,/2 | D,,F,, D,,C,, A,,4 |
   D,,4 D,,4 | C,,4 F,,2 D,,2 | C,,3/2F,, <G,,C,,/2 G,,2 A,,G,,/2F,,/2 | D,,F,, D,,C,, A,,4 |
|: D,,4 D,,4| C,,4 F,,2 D,,2| C,,2 C,,2 D,,4| D,,3F,,/2G,,/2 A,,2 E,,2 :|
   D,,4 D,,4 | C,,4 F,,2 D,,2 | C,,3/2F,, <G,,C,,/2 G,,2 A,,G,,/2F,,/2| D,,F,, D,,C,, A,,4 |
   D,,4 D,,4 | C,,4 F,,2 D,,2 | C,,3/2F,, <G,,C,,/2 G,,2 A,,G,,/2F,,/2 | D,,F,, D,,C,, A,,4 |]
V:4
%%MIDI program 0
   x8 | x8 | x8 | x8 | 
|: x8 | x8 | x8 | x8 :|
   x8 | x8 | x8 | x8 | 
A,F, A,2 D,4 | G,F, G,2 A,4 | G,3/2F, <G,F,/2 G,2 A,2 | D,D, D,C, D,4 |
|: x8 | x8 | x8 | x8 :| 
   x8 | x8 | x8 | x8 | 
A,F, A,2 D,4 | G,F, G,2 A,4 | G,3/2F, <G,F,/2 G,2 A,2 | D,D, D,C, D,4 |]


